X: 083
T: Miss Elizabeth Campbell's Reel
C: by John Pringle
B: John Pringle "Collection of Reels Strathspeys & Jigs", 1801 p.8#3
Z: 2011 John Chambers <jc:trillian.mit.edu>
R: reel
M: C|
L: 1/8
K: G
V: 1
D |\
G2BG FDDF | G2BG (Bc/d/) BG | cBAG FADF | GBAF G2G :|
c |\
BcdB ecAc | BGcB AFDc | BcdB ecAc | BGDF G/G/G G ||
B |\
dgBd ceAc | {c}BABG {G}FEFD | G2DB, CEAc | BGDF G/G/G G |]
V: 2 clef=bass middle=d
z |\
g2G2 d2f2 | g2G2 g2G2 | g2g2 d2d2 | g2d2 G2G :|
z |\
g2b2 c'2a2 | g2g2 d2d2 | g2g2 c'2a2 | g2d2 G2G ||
z |\
b2g2 a2c'2 | g2G2 d2D2 | G2B2 c2^c2 | d2D2 G2G |]

%%sep 2 1 500

